apps/nuxt3-ssr/assets/minified-icons/Image Table.svg

<svg viewBox="0 0 24 24" fill="none" xmlns="http://www.w3.org/2000/svg"><path fill-rule="evenodd" clip-rule="evenodd" d="M20.24 5H3.6C2.71776 5 2 5.71776 2 6.6V18.12C2 19.0022 2.71776 19.72 3.6 19.72H20.24C21.1222 19.72 21.84 19.0022 21.84 18.12V6.6C21.84 5.71776 21.1222 5 20.24 5ZM2.84496 18.7118C2.71676 18.5486 2.64 18.3432 2.64 18.12V17.8H4.36468L2.84496 18.7118ZM11.6 8.2V9.48H9.04V8.2H11.6ZM14.8 8.2V9.48H12.24V8.2H14.8ZM18 8.2V9.48H15.44V8.2H18ZM21.2 8.2V9.48H18.64V8.2H21.2ZM5.2 13.32H3.47532L5.2 12.2852V13.32ZM5.84 12.04H8.4V13.32H5.84V12.04ZM5.84 13.96H8.4V15.24H5.84V13.96ZM5.2 15.24H3.47532L5.2 14.2052V15.24ZM9.04 13.96H11.6V15.24H9.04V13.96ZM9.04 13.32V12.04H11.6V13.32H9.04ZM12.24 12.04H14.8V13.32H12.24V12.04ZM15.44 12.04H18V13.32H15.44V12.04ZM15.44 11.4V10.12H18V11.4H15.44ZM14.8 11.4H12.24V10.12H14.8V11.4ZM11.6 11.4H9.04V10.12H11.6V11.4ZM8.4 11.4H5.84V10.12H8.4V11.4ZM5.2 11.4H3.47532L5.2 10.3652V11.4ZM2.64 10.12H4.36468L2.64 11.1548V10.12ZM3.47532 9.48L5.2 8.4452V9.48H3.47532ZM2.64 12.04H4.36468L2.64 13.0748V12.04ZM2.64 13.96H4.36468L2.64 14.9948V13.96ZM2.64 15.88H4.36468L2.64 16.9148V15.88ZM5.2 16.1252V17.16H3.47532L5.2 16.1252ZM5.84 15.88H8.4V17.16H5.84V15.88ZM9.04 15.88H11.6V17.16H9.04V15.88ZM12.24 15.88H14.8V17.16H12.24V15.88ZM12.24 15.24V13.96H14.8V15.24H12.24ZM15.44 13.96H18V15.24H15.44V13.96ZM18.64 13.96H21.2V15.24H18.64V13.96ZM18.64 13.32V12.04H21.2V13.32H18.64ZM18.64 11.4V10.12H21.2V11.4H18.64ZM8.4 9.48H5.84V8.2H8.4V9.48ZM2.64 9.2348V8.2H4.36468L2.64 9.2348ZM8.4 17.8V19.08H5.84V17.8H8.4ZM9.04 17.8H11.6V19.08H9.04V17.8ZM12.24 17.8H14.8V19.08H12.24V17.8ZM15.44 17.8H18V19.08H15.44V17.8ZM15.44 17.16V15.88H18V17.16H15.44ZM18.64 15.88H21.2V17.16H18.64V15.88ZM3.6 5.64H20.24C20.7694 5.64 21.2 6.07064 21.2 6.6V7.56H2.64V6.6C2.64 6.07064 3.07064 5.64 3.6 5.64ZM3.4868 19.0731L5.2 18.0452V19.08H3.6C3.56168 19.08 3.52396 19.0775 3.4868 19.0731ZM20.24 19.08H18.64V17.8H21.2V18.12C21.2 18.6494 20.7694 19.08 20.24 19.08ZM3.59969 6.91998H4.23969C4.41641 6.91998 4.55969 6.7767 4.55969 6.59998C4.55969 6.42326 4.41641 6.27998 4.23969 6.27998H3.59969C3.42297 6.27998 3.27969 6.42326 3.27969 6.59998C3.27969 6.7767 3.42297 6.91998 3.59969 6.91998ZM7.44008 6.91998H6.80008C6.62336 6.91998 6.48008 6.7767 6.48008 6.59998C6.48008 6.42326 6.62336 6.27998 6.80008 6.27998H7.44008C7.6168 6.27998 7.76008 6.42326 7.76008 6.59998C7.76008 6.7767 7.6168 6.91998 7.44008 6.91998ZM10.0005 6.91998H10.6405C10.8172 6.91998 10.9605 6.7767 10.9605 6.59998C10.9605 6.42326 10.8172 6.27998 10.6405 6.27998H10.0005C9.82375 6.27998 9.68047 6.42326 9.68047 6.59998C9.68047 6.7767 9.82375 6.91998 10.0005 6.91998ZM13.8397 6.91998H13.1997C13.023 6.91998 12.8797 6.7767 12.8797 6.59998C12.8797 6.42326 13.023 6.27998 13.1997 6.27998H13.8397C14.0164 6.27998 14.1597 6.42326 14.1597 6.59998C14.1597 6.7767 14.0164 6.91998 13.8397 6.91998ZM13.1997 9.16002H13.8397C14.0164 9.16002 14.1597 9.01674 14.1597 8.84002C14.1597 8.6633 14.0164 8.52002 13.8397 8.52002H13.1997C13.023 8.52002 12.8797 8.6633 12.8797 8.84002C12.8797 9.01674 13.023 9.16002 13.1997 9.16002ZM13.8397 11.08H13.1997C13.023 11.08 12.8797 10.9367 12.8797 10.76C12.8797 10.5833 13.023 10.44 13.1997 10.44H13.8397C14.0164 10.44 14.1597 10.5833 14.1597 10.76C14.1597 10.9367 14.0164 11.08 13.8397 11.08ZM10.6405 12.36H10.0005C9.82375 12.36 9.68047 12.5033 9.68047 12.68C9.68047 12.8568 9.82375 13 10.0005 13H10.6405C10.8172 13 10.9605 12.8568 10.9605 12.68C10.9605 12.5033 10.8172 12.36 10.6405 12.36ZM16.4001 14.28H17.0401C17.2168 14.28 17.3601 14.4233 17.3601 14.6C17.3601 14.7767 17.2168 14.92 17.0401 14.92H16.4001C16.2234 14.92 16.0801 14.7767 16.0801 14.6C16.0801 14.4233 16.2234 14.28 16.4001 14.28ZM7.44008 14.28H6.80008C6.62336 14.28 6.48008 14.4233 6.48008 14.6C6.48008 14.7767 6.62336 14.92 6.80008 14.92H7.44008C7.6168 14.92 7.76008 14.7767 7.76008 14.6C7.76008 14.4233 7.6168 14.28 7.44008 14.28ZM6.80008 16.2H7.44008C7.6168 16.2 7.76008 16.3433 7.76008 16.52C7.76008 16.6967 7.6168 16.84 7.44008 16.84H6.80008C6.62336 16.84 6.48008 16.6967 6.48008 16.52C6.48008 16.3433 6.62336 16.2 6.80008 16.2ZM13.8397 16.2H13.1997C13.023 16.2 12.8797 16.3433 12.8797 16.52C12.8797 16.6967 13.023 16.84 13.1997 16.84H13.8397C14.0164 16.84 14.1597 16.6967 14.1597 16.52C14.1597 16.3433 14.0164 16.2 13.8397 16.2ZM19.6005 10.44H20.2405C20.4172 10.44 20.5605 10.5833 20.5605 10.76C20.5605 10.9367 20.4172 11.08 20.2405 11.08H19.6005C19.4237 11.08 19.2805 10.9367 19.2805 10.76C19.2805 10.5833 19.4237 10.44 19.6005 10.44ZM16.4001 6.91998H17.0401C17.2168 6.91998 17.3601 6.7767 17.3601 6.59998C17.3601 6.42326 17.2168 6.27998 17.0401 6.27998H16.4001C16.2234 6.27998 16.0801 6.42326 16.0801 6.59998C16.0801 6.7767 16.2234 6.91998 16.4001 6.91998ZM20.2405 6.91998H19.6005C19.4237 6.91998 19.2805 6.7767 19.2805 6.59998C19.2805 6.42326 19.4237 6.27998 19.6005 6.27998H20.2405C20.4172 6.27998 20.5605 6.42326 20.5605 6.59998C20.5605 6.7767 20.4172 6.91998 20.2405 6.91998Z" fill="currentColor"/></svg>

<svg fill="none" xmlns="http://www.w3.org/2000/svg" viewBox="0 0 24 24"><path fill-rule="evenodd" clip-rule="evenodd" d="M20.24 5H3.6C2.718 5 2 5.718 2 6.6v11.52c0 .882.718 1.6 1.6 1.6h16.64c.882 0 1.6-.718 1.6-1.6V6.6c0-.882-.718-1.6-1.6-1.6ZM2.845 18.712a.955.955 0 0 1-.205-.592v-.32h1.725l-1.52.912ZM11.6 8.2v1.28H9.04V8.2h2.56Zm3.2 0v1.28h-2.56V8.2h2.56Zm3.2 0v1.28h-2.56V8.2H18Zm3.2 0v1.28h-2.56V8.2h2.56Zm-16 5.12H3.475L5.2 12.285v1.035Zm.64-1.28H8.4v1.28H5.84v-1.28Zm0 1.92H8.4v1.28H5.84v-1.28Zm-.64 1.28H3.475L5.2 14.205v1.035Zm3.84-1.28h2.56v1.28H9.04v-1.28Zm0-.64v-1.28h2.56v1.28H9.04Zm3.2-1.28h2.56v1.28h-2.56v-1.28Zm3.2 0H18v1.28h-2.56v-1.28Zm0-.64v-1.28H18v1.28h-2.56Zm-.64 0h-2.56v-1.28h2.56v1.28Zm-3.2 0H9.04v-1.28h2.56v1.28Zm-3.2 0H5.84v-1.28H8.4v1.28Zm-3.2 0H3.475L5.2 10.365V11.4Zm-2.56-1.28h1.725L2.64 11.155V10.12Zm.835-.64L5.2 8.445V9.48H3.475Zm-.835 2.56h1.725L2.64 13.075V12.04Zm0 1.92h1.725L2.64 14.995V13.96Zm0 1.92h1.725L2.64 16.915V15.88Zm2.56.245v1.035H3.475L5.2 16.125Zm.64-.245H8.4v1.28H5.84v-1.28Zm3.2 0h2.56v1.28H9.04v-1.28Zm3.2 0h2.56v1.28h-2.56v-1.28Zm0-.64v-1.28h2.56v1.28h-2.56Zm3.2-1.28H18v1.28h-2.56v-1.28Zm3.2 0h2.56v1.28h-2.56v-1.28Zm0-.64v-1.28h2.56v1.28h-2.56Zm0-1.92v-1.28h2.56v1.28h-2.56ZM8.4 9.48H5.84V8.2H8.4v1.28Zm-5.76-.245V8.2h1.725L2.64 9.235ZM8.4 17.8v1.28H5.84V17.8H8.4Zm.64 0h2.56v1.28H9.04V17.8Zm3.2 0h2.56v1.28h-2.56V17.8Zm3.2 0H18v1.28h-2.56V17.8Zm0-.64v-1.28H18v1.28h-2.56Zm3.2-1.28h2.56v1.28h-2.56v-1.28ZM3.6 5.64h16.64c.53 0 .96.43.96.96v.96H2.64V6.6c0-.53.43-.96.96-.96Zm-.113 13.433L5.2 18.045v1.035H3.6a.962.962 0 0 1-.113-.007Zm16.753.007h-1.6V17.8h2.56v.32c0 .53-.43.96-.96.96ZM3.6 6.92h.64a.32.32 0 0 0 0-.64H3.6a.32.32 0 0 0 0 .64Zm3.84 0H6.8a.32.32 0 0 1 0-.64h.64a.32.32 0 0 1 0 .64Zm2.56 0h.64a.32.32 0 0 0 0-.64H10a.32.32 0 1 0 0 .64Zm3.84 0h-.64a.32.32 0 0 1 0-.64h.64a.32.32 0 0 1 0 .64Zm-.64 2.24h.64a.32.32 0 0 0 0-.64h-.64a.32.32 0 0 0 0 .64Zm.64 1.92h-.64a.32.32 0 0 1 0-.64h.64a.32.32 0 0 1 0 .64Zm-3.2 1.28H10a.32.32 0 0 0 0 .64h.64a.32.32 0 1 0 0-.64Zm5.76 1.92h.64a.32.32 0 0 1 0 .64h-.64a.32.32 0 0 1 0-.64Zm-8.96 0H6.8a.32.32 0 0 0 0 .64h.64a.32.32 0 0 0 0-.64ZM6.8 16.2h.64a.32.32 0 0 1 0 .64H6.8a.32.32 0 0 1 0-.64Zm7.04 0h-.64a.32.32 0 0 0 0 .64h.64a.32.32 0 0 0 0-.64Zm5.76-5.76h.64a.32.32 0 0 1 0 .64h-.64a.32.32 0 1 1 0-.64Zm-3.2-3.52h.64a.32.32 0 0 0 0-.64h-.64a.32.32 0 0 0 0 .64Zm3.84 0h-.64a.32.32 0 1 1 0-.64h.64a.32.32 0 0 1 0 .64Z" fill="currentColor"/></svg>
